X:282
T: Bluemlein auf der Haide
N: A0635B
O: Europa, Mitteleuropa, Deutschland
N: Notenbucher 1551 No. 3.
R: Romanze, Ballade, Lied, religioeses Lied
M: 3/1
L: 1/2
K: G
c2 | c4c2 | d4d2 | B4B2 | G4
e2 | e2d2B2 | c2d2dc | BAG2Ac- | cAB2c2 | z4

